X: 2
T: StarWars Cantina (Support)
Z: Nightwind of Windfola
G: Movie Soundtrack
I: Lute
M: 4/4
L: 1/8
Q: 1/4=144
K: F

FA FA FA/2F/2 zE/2F/2-|F/2E/2F E/2_E/2=E D3/2A,/2 z2|FA FA FA/2F/2 zE/2F/2|E2 zE G3/2F3/2E|
FA FA FA/2F/2 zE/2F/2|G2 z2 D3/2A,/2 z2|B,4 F,2 D,2|G,2 C,2 F,4-|
F,/2fd/2 fz3/2fd/2 fz|z/2fd/2 =ef d3/2A/2 z2|z/2fd/2 fz3/2fd/2 fz|z/2fd/2 ef e3/2=g/2 z2|
z/2fd/2 fz3/2fd/2 fz|z/2fd/2 ef d3/2A/2 z2|_B2 =B2 c2 d2|G2 c3z c